public/images/icons/photo-gallery.svg

<svg width="60" height="60" viewBox="0 0 60 60" fill="none" xmlns="http://www.w3.org/2000/svg">
<path d="M54.2727 43.7081L10.5487 52.0495C9.09191 52.322 7.69 51.3619 7.41743 49.9052L0.925159 15.2021C0.652582 13.7453 1.61269 12.3434 3.06944 12.0708L17.9935 9.27885C18.4102 9.20089 18.839 9.21588 19.2492 9.32273C19.6595 9.42959 20.0411 9.62568 20.3668 9.89701L23.1432 12.2097C23.4689 12.481 23.8505 12.6771 24.2608 12.784C24.671 12.8908 25.0998 12.9058 25.5165 12.8278L47.6893 8.51842C49.146 8.24584 50.5479 9.20596 50.8205 10.6627L56.4169 40.5771C56.6896 42.0336 55.7296 43.4355 54.2727 43.7081Z" fill="#FFD15B"/>
<path d="M56.417 40.5769L50.8206 10.6625C50.5481 9.2056 49.1462 8.2456 47.6894 8.51818L40.6197 9.89231C41.9278 9.84157 43.1101 10.7554 43.3581 12.0805L48.5335 40.577C48.8061 42.0337 47.846 43.4356 46.3892 43.7082L7.92676 51.0456C8.52277 51.8207 9.52179 52.2415 10.5487 52.0495L54.2727 43.7081C55.7296 43.4355 56.6896 42.0337 56.417 40.5769ZM13.5434 11.0914L15.6807 13.6275C16.0064 13.8989 16.388 14.0949 16.7982 14.2018C17.2085 14.3087 17.6372 14.3236 18.0539 14.2457L25.1176 12.8727C24.3998 12.9058 23.6955 12.6692 23.1432 12.2096L20.3668 9.89688C20.0411 9.62555 19.6595 9.42946 19.2493 9.32261C18.839 9.21575 18.4103 9.20077 17.9936 9.27872L11.8468 10.4287C12.4691 10.4602 13.0645 10.6927 13.5434 11.0914Z" fill="#FFC344"/>
<path d="M8.52123 57.0641C6.20597 57.0641 4.3291 55.1873 4.3291 52.872V25.4557C4.3291 23.1404 6.20597 21.2637 8.52111 21.2637H49.0399C51.3551 21.2637 53.232 23.1405 53.232 25.4558V52.8721C53.232 55.1874 51.3551 57.0641 49.04 57.0641H8.52123Z" fill="#EAF9FA"/>
<path d="M49.0397 21.2637H39.1895C41.5047 21.2637 43.3816 23.1405 43.3816 25.4558V52.8721C43.3816 55.1873 41.5047 57.0641 39.1896 57.0641H49.0398C51.355 57.0641 53.2318 55.1873 53.2318 52.8721V25.4558C53.2318 23.1405 51.355 21.2637 49.0397 21.2637Z" fill="#D4F2F6"/>
<path d="M49.5723 26.0857V52.2422C49.5723 52.5267 49.4592 52.7996 49.2581 53.0008C49.0569 53.2019 48.784 53.315 48.4995 53.315H9.06101C8.7765 53.315 8.50365 53.2019 8.30248 53.0008C8.1013 52.7996 7.98828 52.5267 7.98828 52.2422V26.0857C7.98828 25.8012 8.1013 25.5283 8.30248 25.3271C8.50365 25.126 8.7765 25.0129 9.06101 25.0129H48.4995C48.6404 25.0129 48.7799 25.0407 48.9101 25.0946C49.0402 25.1485 49.1585 25.2275 49.2581 25.3271C49.3577 25.4267 49.4367 25.545 49.4906 25.6751C49.5445 25.8053 49.5723 25.9448 49.5723 26.0857Z" fill="#A6E7F0"/>
<path d="M48.5001 25.0129H41.8789C42.7091 25.0129 43.3821 25.6859 43.3821 26.5161V51.8119C43.3821 52.6421 42.7091 53.3151 41.8789 53.3151H48.5001C48.7846 53.3151 49.0574 53.2021 49.2586 53.0009C49.4598 52.7997 49.5728 52.5269 49.5728 52.2424V26.0857C49.5728 25.8012 49.4598 25.5283 49.2586 25.3271C49.0574 25.126 48.7846 25.0129 48.5001 25.0129Z" fill="#81DBEA"/>
<path d="M49.573 40.2726V52.2421C49.573 52.835 49.0925 53.3155 48.5007 53.3155H9.06152C8.46855 53.3155 7.98926 52.835 7.98926 52.2421V49.6429L27.5243 39.1429C28.272 38.7398 29.1954 38.8687 29.8059 39.4617L34.45 43.9699L43.3058 37.1425C43.3305 37.1238 43.3562 37.105 43.382 37.0875C44.0887 36.5929 45.0426 36.6222 45.7211 37.1683L49.573 40.2726Z" fill="#2ED1E2"/>
<path d="M49.5724 40.2726V52.2421C49.5724 52.835 49.0919 53.3155 48.5002 53.3155H41.8779C42.7088 53.3155 43.3814 52.6417 43.3814 51.812V37.0875C44.0881 36.5929 45.042 36.6222 45.7205 37.1683L49.5724 40.2726Z" fill="#05BDDB"/>
<path d="M22.2992 41.9941L20.2211 38.8714H20.7976C21.3346 38.8714 21.6551 38.2732 21.3576 37.8261L18.404 33.3882C18.1226 32.9653 17.5013 32.9653 17.2199 33.3882L14.2663 37.8261C13.9688 38.2732 14.2893 38.8714 14.8263 38.8714H15.4028L13.3248 41.9941C13.0272 42.4412 13.3477 43.0394 13.8847 43.0394H15.2205L13.3248 45.888C13.0272 46.3351 13.3477 46.9333 13.8847 46.9333H21.7391C22.2761 46.9333 22.5966 46.3351 22.299 45.888L20.4033 43.0394H21.7391C22.2762 43.0394 22.5967 42.4412 22.2992 41.9941Z" fill="#BBEC6C"/>
<path d="M20.403 43.0393H21.7388C22.2758 43.0393 22.5963 42.4411 22.2988 41.994L20.2207 38.8714H20.7972C21.3342 38.8714 21.6547 38.2732 21.3572 37.8261L18.4036 33.3882C18.1222 32.9653 17.501 32.9653 17.2195 33.3882L16.1367 35.0152C16.4264 34.9178 16.7684 35.0101 16.9573 35.2941L18.6286 37.8263C18.9261 38.2733 18.6056 38.8716 18.0687 38.8716H17.4921L19.5703 41.9941C19.8678 42.4412 19.5473 43.0394 19.0104 43.0394H17.6746L19.5703 45.888C19.8678 46.3351 19.5473 46.9333 19.0104 46.9333H21.7388C22.2758 46.9333 22.5963 46.3351 22.2988 45.888L20.403 43.0393Z" fill="#97D729"/>
<path d="M34.8871 34.9768C36.2103 34.9768 37.283 33.9042 37.283 32.5809C37.283 31.2577 36.2103 30.1851 34.8871 30.1851C33.5639 30.1851 32.4912 31.2577 32.4912 32.5809C32.4912 33.9042 33.5639 34.9768 34.8871 34.9768Z" fill="#FFD15B"/>
<path d="M34.8866 30.1851C34.4721 30.1851 34.0823 30.2904 33.7422 30.4757C34.4877 30.8819 34.9936 31.6723 34.9936 32.5809C34.9936 33.4896 34.4876 34.2802 33.7422 34.6862C34.0933 34.8775 34.4868 34.9774 34.8866 34.9768C36.2099 34.9768 37.2825 33.9041 37.2825 32.5809C37.2825 31.2578 36.2099 30.1851 34.8866 30.1851Z" fill="#FFC344"/>
<path d="M42.7899 21.2637H49.0399C51.3551 21.2637 53.232 23.1405 53.232 25.4558V52.8721C53.232 55.1874 51.3551 57.0641 49.04 57.0641H8.52123C6.20597 57.0641 4.3291 55.1873 4.3291 52.872V25.4557C4.3291 23.1404 6.20597 21.2637 8.52111 21.2637H38.6659" stroke="black" stroke-width="1.7578" stroke-miterlimit="10" stroke-linecap="round" stroke-linejoin="round"/>
<path d="M9.06101 53.3151C8.7765 53.3151 8.50365 53.2021 8.30248 53.0009C8.1013 52.7997 7.98828 52.5269 7.98828 52.2424V26.0857C7.98828 25.8012 8.1013 25.5283 8.30248 25.3271C8.50365 25.126 8.7765 25.0129 9.06101 25.0129H48.4995C48.784 25.0129 49.0569 25.126 49.2581 25.3271C49.4592 25.5283 49.5723 25.8012 49.5723 26.0857V52.2422C49.5723 52.5267 49.4592 52.7996 49.2581 53.0008C49.0569 53.2019 48.784 53.315 48.4995 53.315" stroke="black" stroke-width="1.7578" stroke-miterlimit="10" stroke-linecap="round" stroke-linejoin="round"/>
<path d="M17.8119 53.3155H9.06152C8.46855 53.3155 7.98926 52.8351 7.98926 52.2421V49.6429L13.4045 46.732M22.2778 41.9625L27.5243 39.143C28.272 38.7398 29.1954 38.8688 29.8059 39.4617L34.45 43.9699L43.3058 37.1426C44.0195 36.5918 45.0179 36.6024 45.7211 37.1684L49.573 40.2727V52.2421C49.573 52.8351 49.0925 53.3155 48.5007 53.3155H21.9279" stroke="black" stroke-width="1.7578" stroke-miterlimit="10" stroke-linecap="round" stroke-linejoin="round"/>
<path d="M22.2992 41.9941L20.2211 38.8714H20.7976C21.3346 38.8714 21.6551 38.2732 21.3576 37.8261L18.404 33.3882C18.1226 32.9653 17.5013 32.9653 17.2199 33.3882L14.2663 37.8261C13.9688 38.2732 14.2893 38.8714 14.8263 38.8714H15.4028L13.3248 41.9941C13.0272 42.4412 13.3477 43.0394 13.8847 43.0394H15.2205L13.3248 45.888C13.0272 46.3351 13.3477 46.9333 13.8847 46.9333H21.7391C22.2761 46.9333 22.5966 46.3351 22.299 45.888L20.4033 43.0394H21.7391C22.2762 43.0394 22.5967 42.4412 22.2992 41.9941Z" stroke="black" stroke-width="1.7578" stroke-miterlimit="10" stroke-linecap="round" stroke-linejoin="round"/>
<path d="M34.8871 34.9768C36.2103 34.9768 37.283 33.9042 37.283 32.5809C37.283 31.2577 36.2103 30.1851 34.8871 30.1851C33.5639 30.1851 32.4912 31.2577 32.4912 32.5809C32.4912 33.9042 33.5639 34.9768 34.8871 34.9768Z" stroke="black" stroke-width="1.7578" stroke-miterlimit="10" stroke-linecap="round" stroke-linejoin="round"/>
<path d="M34.45 43.9699L37.7931 47.3258M17.8116 46.9333V53.3151M53.2325 43.9066L54.2731 43.7086C55.7297 43.4356 56.6895 42.034 56.4176 40.5774L50.8208 10.6619C50.5489 9.20529 49.1462 8.24553 47.6895 8.51858L25.5166 12.8275C25.1 12.9054 24.6713 12.8905 24.2611 12.7838C23.8509 12.677 23.4694 12.4811 23.1436 12.21L20.3674 9.89669C20.0418 9.62533 19.6602 9.42926 19.25 9.3225C18.8397 9.21574 18.411 9.20092 17.9944 9.27912L3.06948 12.0705C1.61284 12.3436 0.653083 13.7451 0.924957 15.2017L4.32923 33.3962M10.1751 15.2267L18.2622 13.7137M57.4997 12.0923V15.3351M59.1211 13.7137H55.8783" stroke="black" stroke-width="1.7578" stroke-miterlimit="10" stroke-linecap="round" stroke-linejoin="round"/>
</svg>

<svg xmlns="http://www.w3.org/2000/svg" width="60" height="60" fill="none" xmlns:v="https://vecta.io/nano"><style><![CDATA[.B{stroke-linejoin:round}.C{stroke-linecap:round}]]></style><path d="M54.273 43.708L10.549 52.05c-1.457.273-2.859-.688-3.131-2.144L.925 15.202c-.273-1.457.688-2.859 2.144-3.131l14.924-2.792a2.88 2.88 0 0 1 2.373.618l2.776 2.313a2.88 2.88 0 0 0 2.373.618l22.173-4.309c1.457-.273 2.859.688 3.131 2.144l5.596 29.914c.273 1.456-.687 2.858-2.144 3.131z" fill="#ffd15b"/><path d="M56.417 40.577l-5.596-29.914c-.273-1.457-1.674-2.417-3.131-2.144l-7.07 1.374c1.308-.051 2.49.863 2.738 2.188l5.175 28.496c.273 1.457-.687 2.859-2.144 3.131L7.927 51.046c.596.775 1.595 1.196 2.622 1.004l43.724-8.341c1.457-.273 2.417-1.674 2.144-3.131zM13.543 11.091l2.137 2.536a2.88 2.88 0 0 0 2.373.618l7.064-1.373a2.88 2.88 0 0 1-1.974-.663l-2.776-2.313a2.88 2.88 0 0 0-2.373-.618l-6.147 1.15a2.88 2.88 0 0 1 1.697.663z" fill="#ffc344"/><path d="M8.521 57.064c-2.315 0-4.192-1.877-4.192-4.192V25.456c0-2.315 1.877-4.192 4.192-4.192H49.04c2.315 0 4.192 1.877 4.192 4.192v27.416c0 2.315-1.877 4.192-4.192 4.192H8.521z" fill="#eaf9fa"/><path d="M49.04 21.264h-9.85c2.315 0 4.192 1.877 4.192 4.192v27.416c0 2.315-1.877 4.192-4.192 4.192h9.85c2.315 0 4.192-1.877 4.192-4.192V25.456c0-2.315-1.877-4.192-4.192-4.192z" fill="#d4f2f6"/><path d="M49.572 26.086v26.156c0 .285-.113.557-.314.759s-.474.314-.759.314H9.061c-.285 0-.557-.113-.759-.314s-.314-.474-.314-.759V26.086c0-.284.113-.557.314-.759s.474-.314.759-.314H48.5c.141 0 .28.028.411.082s.248.133.348.233.179.218.233.348.082.27.082.411z" fill="#a6e7f0"/><path d="M48.5 25.013h-6.621c.83 0 1.503.673 1.503 1.503v25.296c0 .83-.673 1.503-1.503 1.503H48.5c.284 0 .557-.113.758-.314s.314-.474.314-.758V26.086c0-.284-.113-.557-.314-.759s-.474-.314-.758-.314z" fill="#81dbea"/><path d="M49.573 40.273v11.97c0 .593-.48 1.073-1.072 1.073H9.062c-.593 0-1.072-.48-1.072-1.073v-2.599l19.535-10.5a1.95 1.95 0 0 1 2.282.319l4.644 4.508 8.856-6.827.076-.055a1.95 1.95 0 0 1 2.339.081l3.852 3.104z" fill="#2ed1e2"/><path d="M49.572 40.273v11.97c0 .593-.48 1.073-1.072 1.073h-6.622c.831 0 1.504-.674 1.504-1.504V37.088a1.95 1.95 0 0 1 2.339.081l3.852 3.104z" fill="#05bddb"/><use href="#B" fill="#bbec6c"/><path d="M20.403 43.039h1.336c.537 0 .857-.598.56-1.045l-2.078-3.123h.576c.537 0 .857-.598.56-1.045l-2.954-4.438a.71.71 0 0 0-1.184 0l-1.083 1.627a.71.71 0 0 1 .821.279l1.671 2.532c.298.447-.023 1.045-.56 1.045h-.577l2.078 3.123c.297.447-.023 1.045-.56 1.045h-1.336l1.896 2.849c.297.447-.023 1.045-.56 1.045h2.728c.537 0 .857-.598.56-1.045l-1.896-2.849z" fill="#97d729"/><use href="#C" fill="#ffd15b"/><path d="M34.887 30.185c-.415 0-.804.105-1.144.291.745.406 1.251 1.197 1.251 2.105s-.506 1.699-1.251 2.105c.351.191.745.291 1.144.291 1.323 0 2.396-1.073 2.396-2.396s-1.073-2.396-2.396-2.396z" fill="#ffc344"/><g stroke="#000" stroke-width="1.758" stroke-miterlimit="10" class="B"><g class="C"><path d="M42.79 21.264h6.25c2.315 0 4.192 1.877 4.192 4.192v27.416c0 2.315-1.877 4.192-4.192 4.192H8.521c-2.315 0-4.192-1.877-4.192-4.192V25.456c0-2.315 1.877-4.192 4.192-4.192h30.145"/><path d="M9.061 53.315c-.285 0-.557-.113-.759-.314s-.314-.474-.314-.758V26.086c0-.284.113-.557.314-.759s.474-.314.759-.314H48.5c.285 0 .557.113.759.314s.314.474.314.759v26.156c0 .285-.113.557-.314.759s-.474.314-.759.314"/><path d="M17.812 53.316h-8.75c-.593 0-1.072-.48-1.072-1.073v-2.599l5.415-2.911m8.873-4.77l5.247-2.819a1.95 1.95 0 0 1 2.282.319l4.644 4.508 8.856-6.827a1.95 1.95 0 0 1 2.415.026l3.852 3.104v11.969c0 .593-.48 1.073-1.072 1.073H21.928"/></g><use href="#B"/><use href="#C"/><path d="M34.45 43.97l3.343 3.356m-19.982-.392v6.382m35.421-9.409l1.041-.198c1.457-.273 2.416-1.675 2.145-3.131l-5.597-29.915c-.272-1.457-1.675-2.416-3.131-2.143l-22.173 4.309c-.417.078-.845.063-1.256-.044a2.88 2.88 0 0 1-1.117-.574l-2.776-2.313c-.326-.271-.707-.467-1.117-.574a2.88 2.88 0 0 0-1.256-.043L3.069 12.071c-1.457.273-2.416 1.675-2.145 3.131l3.404 18.194m5.846-18.169l8.087-1.513M57.5 12.092v3.243m1.621-1.621h-3.243" class="C"/></g><defs ><path id="B" d="M22.299 41.994l-2.078-3.123h.576c.537 0 .858-.598.56-1.045l-2.954-4.438a.71.71 0 0 0-1.184 0l-2.954 4.438c-.297.447.023 1.045.56 1.045h.576l-2.078 3.123c-.298.447.023 1.045.56 1.045h1.336l-1.896 2.849c-.298.447.023 1.045.56 1.045h7.854c.537 0 .857-.598.56-1.045l-1.896-2.849h1.336c.537 0 .858-.598.56-1.045z"/><path id="C" d="M34.887 34.977c1.323 0 2.396-1.073 2.396-2.396s-1.073-2.396-2.396-2.396-2.396 1.073-2.396 2.396 1.073 2.396 2.396 2.396z"/></defs></svg>
